X: 92
T:Flowers of Quern
M:4/4
L:1/8
C:JS Skinner
K:G
D|"G"G2 G2 "D"F2 ED|"C"c2 c2 "G"B2 d2|"G"d2 BA "Em"G2 AB|"D"A6 D|"G"G2 G2 "D"F2 ED|!
"C"c2 c2 "G"B2 d2|"Am"dcEA"D7"G2 F2|"G"G6G2|| "C"c2 c&gt;c c2 e&gt;e|"G"d2 d&gt;B d2 g&gt;e|!
"G"d2 B&gt;A "Em"G2 AB|"A7"A6 "D7"D2|"G"G2 G2 "D"F2 ED|"C"c2 c2 "G"B2 d&gt;d|"Am"dcFA "D7"GFB&gt;A|"G"G6||

